X:023
%%topmargin 3cm
T:Spirvin's Fancy
B:The Nelson Music Collection
N:Newton F. Tolman & K. Dep. Gilbert
Z:Transcribed by Ralph Palmer
R:Reel
L:1/16
M:2/4
K:Gm
dc S| BGFD D2CC | DGG^F GABc | dBcA BGFA | CGG^F GAdc |
BGFD D2CC | DGG^F GABc | dBcA BGFA | DGG^F G2 z2 ||
B2df bdfd | B2df gdfd | B2df bdfd | c=Bcd _BGG2 |
B2df bdfd | B2df fdfd | bdbd fdfd | d=Bcd _BGGB !D.S.! |]

